packages/dnb-ui-lib/assets/icons/document_signing_medium.svg

<svg width="24" height="24" viewBox="0 0 24 24" fill="none" xmlns="http://www.w3.org/2000/svg">
<path d="M22.6297 14.8698L22.0998 14.3391L22.0993 14.3395L22.6297 14.8698ZM14.9998 22.4997L15.1469 23.2351C15.2921 23.2061 15.4254 23.1347 15.5301 23.03L14.9998 22.4997ZM11.2498 23.2497L10.5144 23.1026C10.4652 23.3485 10.5422 23.6027 10.7195 23.78C10.8968 23.9573 11.151 24.0343 11.3969 23.9851L11.2498 23.2497ZM11.9998 19.4998L11.4695 18.9694C11.3648 19.0741 11.2934 19.2075 11.2644 19.3527L11.9998 19.4998ZM19.6297 11.8699L20.16 12.4002L20.1604 12.3998L19.6297 11.8699ZM22.6217 11.8699L22.0909 12.3998L22.0913 12.4002L22.6217 11.8699ZM23.0888 12.5641L22.396 12.8514L23.0888 12.5641ZM22.1997 15.2998L22.73 15.8301L22.1997 15.2998ZM4.99993 4.24994C4.58572 4.24994 4.24994 4.58572 4.24994 4.99993C4.24994 5.41413 4.58572 5.74992 4.99993 5.74992V4.24994ZM10.4998 5.74992C10.9141 5.74992 11.2498 5.41413 11.2498 4.99993C11.2498 4.58572 10.9141 4.24994 10.4998 4.24994V5.74992ZM4.99993 7.24989C4.58572 7.24989 4.24994 7.58568 4.24994 7.99988C4.24994 8.41409 4.58572 8.74987 4.99993 8.74987V7.24989ZM13.4998 8.74987C13.914 8.74987 14.2498 8.41409 14.2498 7.99988C14.2498 7.58568 13.914 7.24989 13.4998 7.24989V8.74987ZM4.99993 18.2497C4.58572 18.2497 4.24994 18.5855 4.24994 18.9997C4.24994 19.4139 4.58572 19.7497 4.99993 19.7497V18.2497ZM8.49988 19.7497C8.91408 19.7497 9.24986 19.4139 9.24986 18.9997C9.24986 18.5855 8.91408 18.2497 8.49988 18.2497V19.7497ZM17.7497 8.99987C17.7497 9.41407 18.0855 9.74986 18.4997 9.74986C18.9139 9.74986 19.2497 9.41407 19.2497 8.99987H17.7497ZM7.99988 23.7497C8.41409 23.7497 8.74987 23.4139 8.74987 22.9997C8.74987 22.5855 8.41409 22.2497 7.99988 22.2497V23.7497ZM18.2631 7.22026L18.8357 6.73581L18.2631 7.22026ZM2.49996 0.999999L2.49996 0.25001L2.49996 0.999999ZM12.536 0.999986L12.536 0.249997L12.536 0.999986ZM13.2994 1.35404L12.7269 1.83849L13.2994 1.35404ZM14.8527 21.7643L11.1027 22.5143L11.3969 23.9851L15.1469 23.2351L14.8527 21.7643ZM11.9853 23.3968L12.7352 19.6468L11.2644 19.3527L10.5144 23.1026L11.9853 23.3968ZM20.1604 12.3998C20.2871 12.2729 20.4376 12.1722 20.6032 12.1035L20.0287 10.718C19.6809 10.8622 19.365 11.0735 19.099 11.34L20.1604 12.3998ZM20.6032 12.1035C20.7688 12.0349 20.9464 11.9995 21.1257 11.9995V10.4995C20.7492 10.4995 20.3764 10.5738 20.0287 10.718L20.6032 12.1035ZM21.1257 11.9995C21.305 11.9995 21.4825 12.0349 21.6482 12.1035L22.2227 10.718C21.875 10.5738 21.5022 10.4995 21.1257 10.4995V11.9995ZM21.6482 12.1035C21.8138 12.1722 21.9642 12.2729 22.0909 12.3998L23.1524 11.34C22.8864 11.0735 22.5705 10.8622 22.2227 10.718L21.6482 12.1035ZM22.396 12.8514C22.4647 13.017 22.5 13.1945 22.5 13.3738H24C24 12.9974 23.9258 12.6246 23.7816 12.2768L22.396 12.8514ZM22.5 13.3738C22.5 13.5532 22.4647 13.7307 22.396 13.8963L23.7816 14.4709C23.9258 14.1231 24 13.7503 24 13.3738H22.5ZM22.396 13.8963C22.3273 14.0619 22.2266 14.2124 22.0998 14.3391L23.1596 15.4006C23.426 15.1346 23.6374 14.8186 23.7816 14.4709L22.396 13.8963ZM12.5301 20.0301L19.7301 12.8301L18.6694 11.7695L11.4695 18.9694L12.5301 20.0301ZM19.7301 12.8301L20.16 12.4002L19.0994 11.3395L18.6694 11.7695L19.7301 12.8301ZM22.0993 14.3395L21.6694 14.7695L22.73 15.8301L23.16 15.4001L22.0993 14.3395ZM21.6694 14.7695L14.4695 21.9694L15.5301 23.03L22.73 15.8301L21.6694 14.7695ZM18.6694 12.8301L21.6694 15.8301L22.73 14.7695L19.7301 11.7695L18.6694 12.8301ZM22.0913 12.4002C22.2242 12.5331 22.3275 12.6862 22.396 12.8514L23.7816 12.2768C23.6341 11.9213 23.4173 11.6049 23.152 11.3396L22.0913 12.4002ZM4.99993 5.74992H10.4998V4.24994H4.99993V5.74992ZM4.99993 8.74987H13.4998V7.24989H4.99993V8.74987ZM4.99993 19.7497H8.49988V18.2497H4.99993V19.7497ZM2.24997 21.9997V1.99998H0.749989V21.9997H2.24997ZM17.7497 7.86619V8.99987H19.2497V7.86619H17.7497ZM2.49996 1.74999L12.536 1.74998L12.536 0.249997L2.49996 0.25001L2.49996 1.74999ZM2.49996 23.7497H7.99988V22.2497H2.49996V23.7497ZM12.7269 1.83849L17.6906 7.70471L18.8357 6.73581L13.8719 0.869589L12.7269 1.83849ZM19.2497 7.86619C19.2497 7.45229 19.103 7.05178 18.8357 6.73581L17.6906 7.70471C17.7288 7.74985 17.7497 7.80706 17.7497 7.86619H19.2497ZM2.24997 1.99998C2.24997 1.86191 2.36189 1.74999 2.49996 1.74999L2.49996 0.25001C1.53348 0.250011 0.749989 1.0335 0.749989 1.99998H2.24997ZM0.749989 21.9997C0.749989 22.9662 1.53348 23.7497 2.49996 23.7497V22.2497C2.36189 22.2497 2.24997 22.1377 2.24997 21.9997H0.749989ZM12.536 1.74998C12.6096 1.74997 12.6794 1.78235 12.7269 1.83849L13.8719 0.869589C13.5394 0.476631 13.0508 0.249996 12.536 0.249997L12.536 1.74998Z" fill="black"/>
</svg>

<svg width="24" height="24" viewBox="0 0 24 24" fill="none" xmlns="http://www.w3.org/2000/svg"><path d="M22.63 14.87l-.53-.53.53.53zM15 22.5l.147.735a.75.75 0 00.383-.205L15 22.5zm-3.75.75l-.736-.147a.75.75 0 00.883.882l-.147-.735zM12 19.5l-.53-.53a.75.75 0 00-.206.383L12 19.5zm7.63-7.63l.53.53-.53-.53zm2.992 0l-.531.53.53-.53zm.467.694l-.693.287.693-.287zm-.89 2.736l.531.53-.53-.53zM5 4.25a.75.75 0 100 1.5v-1.5zm5.5 1.5a.75.75 0 100-1.5v1.5zM5 7.25a.75.75 0 000 1.5v-1.5zm8.5 1.5a.75.75 0 000-1.5v1.5zM5 18.25a.75.75 0 000 1.5v-1.5zm3.5 1.5a.75.75 0 000-1.5v1.5zM17.75 9a.75.75 0 001.5 0h-1.5zM8 23.75a.75.75 0 000-1.5v1.5zM18.264 7.22l.573-.484-.573.484zM2.5 1V.25 1zm10.036 0V.25 1zm.763.354l-.572.484.572-.484zm1.554 20.41l-3.75.75.294 1.471 3.75-.75-.294-1.47zm-2.868 1.633l.75-3.75-1.47-.294-.75 3.75 1.47.294zM20.16 12.4c.127-.127.278-.228.443-.296l-.574-1.386a2.862 2.862 0 00-.93.622l1.061 1.06zm.443-.296c.166-.07.343-.104.523-.104v-1.5c-.377 0-.75.074-1.097.218l.574 1.386zm.523-.104c.179 0 .357.035.522.104l.575-1.386a2.864 2.864 0 00-1.097-.219V12zm.522.104c.166.068.316.169.443.296l1.061-1.06a2.862 2.862 0 00-.93-.622l-.574 1.386zm.748.747c.069.166.104.343.104.523H24c0-.377-.074-.75-.218-1.097l-1.386.574zm.104.523c0 .18-.035.357-.104.522l1.386.575c.144-.348.218-.72.218-1.097h-1.5zm-.104.522c-.069.166-.17.316-.296.443l1.06 1.062c.266-.266.477-.582.622-.93l-1.386-.575zM12.53 20.03l7.2-7.2-1.06-1.06-7.2 7.2 1.06 1.06zm7.2-7.2l.43-.43-1.06-1.06-.43.43 1.06 1.06zm2.37 1.51l-.43.43 1.06 1.06.43-.43-1.06-1.06zm-.43.43l-7.2 7.2 1.06 1.06 7.2-7.2-1.06-1.06zm-3-1.94l3 3 1.06-1.06-3-3-1.06 1.06zm3.421-.43c.133.133.236.286.305.451l1.386-.574a2.897 2.897 0 00-.63-.937l-1.06 1.06zM5 5.75h5.5v-1.5H5v1.5zm0 3h8.5v-1.5H5v1.5zm0 11h3.5v-1.5H5v1.5zM2.25 22V2H.75v20h1.5zm15.5-14.134V9h1.5V7.866h-1.5zM2.5 1.75h10.036V.25H2.5v1.5zm0 22H8v-1.5H2.5v1.5zM12.727 1.838l4.964 5.867 1.145-.97L13.872.87l-1.145.968zm6.523 6.028a1.75 1.75 0 00-.414-1.13l-1.145.969a.25.25 0 01.059.161h1.5zM2.25 2a.25.25 0 01.25-.25V.25A1.75 1.75 0 00.75 2h1.5zM.75 22c0 .966.783 1.75 1.75 1.75v-1.5a.25.25 0 01-.25-.25H.75zM12.536 1.75a.25.25 0 01.19.088L13.873.87a1.75 1.75 0 00-1.336-.62v1.5z" fill="#000"/></svg>
